images/new/stage-active.svg

<svg class="fest-svg" xmlns="http://www.w3.org/2000/svg" viewBox="0 0 230 290">
    <g class="fest-svg__marker" transform="translate(115,268) scale(1.3,1)">
        <path fill="currentColor" d="M137,268c0,12.15-9.85,22-22,22s-22-9.85-22-22s9.85-22,22-22s22,9.85,22,22Z" transform="translate(-115,-268)"/>
    </g>
    <g class="fest-svg__marker-background" transform="translate(115.337811,268.814498)">
        <g transform="scale(0.6,0.6)">
            <path d="M196.54245,231.60471l-.696.634c-2.461,2.453-5.033,4.795-7.706,7.019l-68.799,62.664c-2.62,2.644-6.206,2.624-8.846,0l-67.8717-61.901c-29.51482-32.54165-42.7053-53.60232-42.7053-89.94732c0-63.9025,51.48715-115.74768,115-115.74768s115,49.97418,115,113.87668c0,31.828-12.772,62.48332-33.441,83.40232h.065Z" transform="translate(-115.51568,-303.233311)" fill="#fff" stroke-linejoin="bevel"/>
        </g>
    </g>
    <g class="fest-svg__background" transform="translate(115,189.975)">
        <path fill="currentColor" d="M15,115C15,59.7715,59.7715,15,115,15c55.228,0,100,44.7715,100,100c0,55.228-44.772,100-100,100-55.2285,0-100-44.772-100-100Z" transform="translate(-115,-115)"/>
    </g>
    <g class="fest-svg__icon" transform="translate(115,190.60672)">
        <g transform="translate(-115,-113.820999)">
            <path d="M49.375,160.821c0-2.663,2.1584-4.821,4.8209-4.821h121.6081c2.663,0,4.821,2.158,4.821,4.821c0,2.662-2.158,4.821-4.821,4.821h-121.6081c-2.6625,0-4.8209-2.159-4.8209-4.821Z" fill="#fff"/>
            <path d="M72.8932,62.0002L61.0868,62c-1.8141,0-3.1319,1.5003-3.1319,3.167v46.783h17.8796c5.1926-7.592,23.4724-19.7602,24.9765-39.42h28.378c1.613,19.661,19.655,31.827,24.82,39.42h17.873v-46.7817c0-1.8344-1.483-3.1669-3.132-3.1669l-14.937-.0002c-.037-.0008-.074-.0012-.111-.0012h-80.7692c-.0132,0-.0264.0001-.0396.0002Z" fill="#fff"/>
            <path d="M155.892,121.94h16.32l-.002,34.132h-23.226c.554-17.884,4.156-29.643,6.908-34.132Z" fill="#fff"/>
            <path d="M74.1086,121.94h-16.32v34.132h23.2335c-.4007-17.884-4.156-29.643-6.9135-34.132Z" fill="#fff"/>
        </g>
    </g>
</svg>

<svg class="fest-svg" width="230" height="290" viewBox="0 0 230 290" fill="none" xmlns="http://www.w3.org/2000/svg">
<path class="fest-svg__marker" d="M137 268C137 280.15 127.15 290 115 290C102.85 290 93 280.15 93 268C93 255.85 102.85 246 115 246C127.15 246 137 255.85 137 268Z" fill="currentColor"/>
<path class="fest-svg__marker-background" d="M196.559 197.279C217.228 176.36 230 147.534 230 115.706C230 51.8035 178.513 0 115 0C51.4873 0 0 51.8035 0 115.706C0 152.051 16.6552 184.483 42.7053 205.695L110.577 267.596C113.217 270.22 116.803 270.24 119.423 267.596L188.222 204.932C190.895 202.708 193.467 200.366 195.928 197.913L196.624 197.279H196.559Z" fill="white"/>
<path class="fest-svg__background" d="M15 115C15 59.7715 59.7715 15 115 15C170.228 15 215 59.7715 215 115C215 170.228 170.228 215 115 215C59.7715 215 15 170.228 15 115Z" fill="currentColor"/>
<path class="fest-svg__icon" d="M49.375 160.821C49.375 158.158 51.5334 156 54.1959 156H175.804C178.467 156 180.625 158.158 180.625 160.821C180.625 163.483 178.467 165.642 175.804 165.642H54.1959C51.5334 165.642 49.375 163.483 49.375 160.821Z" fill="white"/>
<path class="fest-svg__icon" d="M72.8932 62.0002L61.0868 62C59.2727 62 57.9549 63.5003 57.9549 65.167V111.95H75.8345C81.0271 104.358 99.3069 92.1898 100.811 72.53H129.189C130.802 92.191 148.844 104.357 154.009 111.95H171.882V65.1683C171.882 63.3339 170.399 62.0014 168.75 62.0014L153.813 62.0012C153.776 62.0004 153.739 62 153.702 62H72.9328C72.9196 62 72.9064 62.0001 72.8932 62.0002Z" fill="white"/>
<path class="fest-svg__icon" d="M155.892 121.94H172.212L172.21 156.072H148.984C149.538 138.188 153.14 126.429 155.892 121.94Z" fill="white"/>
<path class="fest-svg__icon" d="M74.1086 121.94H57.7886V156.072H81.0221C80.6214 138.188 76.8661 126.429 74.1086 121.94Z" fill="white"/>
</svg>
